img/instagram.svg

<svg width="26" height="26" viewBox="0 0 26 26" role="img" aria-label="Instagram logo." fill="none" xmlns="http://www.w3.org/2000/svg" lang="en">
<path d="M25.5549 4.65045C25.3182 2.43314 23.5671 0.68158 21.3495 0.445129C15.7886 -0.148376 10.2114 -0.148376 4.65065 0.445129C2.43314 0.681778 0.681778 2.43314 0.445129 4.65045C-0.148376 10.2112 -0.148376 15.7886 0.445129 21.3493C0.681778 23.5669 2.43314 25.3182 4.65045 25.5549C10.2112 26.1484 15.7886 26.1484 21.3495 25.5549C23.5671 25.3182 25.3182 23.5669 25.5549 21.3493C26.1484 15.7886 26.1484 10.2114 25.5549 4.65045Z" fill="url(#paint0_radial_21_149)"/>
<path d="M24.1407 5.5909C23.9309 3.62333 22.3769 2.06915 20.4091 1.85908C15.4746 1.33262 10.5254 1.33262 5.5909 1.85908C3.62333 2.06915 2.06915 3.62333 1.85908 5.5909C1.33262 10.5254 1.33262 15.4746 1.85908 20.4089C2.06915 22.3767 3.62333 23.9309 5.5909 24.1407C10.5254 24.6674 15.4746 24.6674 20.4089 24.1407C22.3767 23.9309 23.9309 22.3767 24.1407 20.4089C24.6674 15.4746 24.6674 10.5254 24.1407 5.5909Z" fill="url(#paint1_linear_21_149)"/>
<path d="M0.389587 20.8104C0.40744 20.9901 0.425888 21.1699 0.445129 21.3496C0.681778 23.5669 2.43314 25.3183 4.65065 25.5549C10.2114 26.1484 15.7888 26.1484 21.3495 25.5549C23.5671 25.3183 25.3182 23.5669 25.5549 21.3496C25.5741 21.1699 25.5926 20.9901 25.6106 20.8104H0.389587Z" fill="url(#paint2_linear_21_149)"/>
<path d="M25.5549 21.3493C25.8739 18.3613 26.021 15.3686 25.9972 12.3763L20.0542 6.4333C19.3118 5.58569 18.2273 5.05665 16.953 5.01083C14.3324 4.91641 11.7035 4.92117 9.08252 5.01122C6.90567 5.08621 5.38342 6.54934 4.99304 8.69981C4.92421 9.07948 4.88295 9.46411 4.8288 9.84655V16.151C4.85875 16.3553 4.90279 16.5586 4.91647 16.7641C5.00375 18.0721 5.54132 19.1925 6.40202 19.9504L12.4498 25.998C15.4177 26.0188 18.3858 25.8712 21.3496 25.5548C23.5671 25.3182 25.3182 23.5668 25.5549 21.3493Z" fill="url(#paint3_linear_21_149)"/>
<path d="M25.5549 21.3495C25.3184 23.5667 23.5667 25.3184 21.3495 25.5549C18.3862 25.8711 15.4174 26.0188 12.4499 25.998L6.41132 19.9594C7.11134 20.5722 8.02382 20.9453 9.08269 20.9852C11.7031 21.0835 14.3326 21.081 16.953 20.9865C19.323 20.9008 21.0381 19.1467 21.1121 16.7767C21.191 14.2602 21.191 11.7372 21.1121 9.22076C21.0784 8.12738 20.6945 7.16531 20.0582 6.43732L25.9974 12.3765C26.0208 15.3685 25.8736 18.3616 25.5549 21.3495Z" fill="url(#paint4_linear_21_149)"/>
<path d="M16.0679 10.1846C15.3066 9.35568 14.2142 8.83557 13 8.83557C10.7002 8.83557 8.83554 10.7002 8.83554 13C8.83554 14.2142 9.35565 15.3066 10.1846 16.0679L19.8198 25.7031C20.3298 25.6586 20.8398 25.6093 21.3493 25.5549C23.5669 25.3183 25.3182 23.5669 25.5549 21.3494C25.6092 20.8398 25.6586 20.3298 25.703 19.8198L16.0679 10.1846Z" fill="url(#paint5_linear_21_149)"/>
<path d="M25.9496 15.8007L18.1951 8.04648C18.0142 7.80904 17.7292 7.65491 17.4076 7.65491C16.8605 7.65491 16.4168 8.09845 16.4168 8.64574C16.4168 8.96729 16.5709 9.25233 16.8084 9.43324L25.8109 18.436C25.872 17.5578 25.9183 16.6793 25.9496 15.8007Z" fill="url(#paint6_linear_21_149)"/>
<path d="M4.8288 9.84655C4.88295 9.46411 4.92421 9.07948 4.99304 8.69981C5.38322 6.54934 6.90567 5.08621 9.08252 5.01122C11.7035 4.92117 14.3324 4.91641 16.953 5.01083C19.3223 5.09612 21.0381 6.85046 21.1121 9.22051C21.1909 11.7372 21.1909 14.26 21.1121 16.7766C21.0381 19.1467 19.3229 20.9008 16.9532 20.9863C14.3326 21.0809 11.7031 21.0833 9.08272 20.9849C6.71306 20.8958 5.07497 19.1375 4.91647 16.7639C4.90279 16.5586 4.85875 16.3551 4.8288 16.1508C4.8288 14.0493 4.8288 11.9478 4.8288 9.84655ZM13.0022 19.5817C14.2015 19.5817 15.402 19.6176 16.5997 19.5733C18.4776 19.5037 19.6327 18.383 19.6766 16.5068C19.7309 14.1691 19.7309 11.8282 19.6766 9.49029C19.6327 7.61456 18.4769 6.46762 16.5997 6.42774C14.2172 6.37736 11.832 6.37776 9.44949 6.42774C7.58665 6.46682 6.42821 7.59056 6.37762 9.44566C6.31335 11.8129 6.31335 14.1844 6.37762 16.5517C6.42821 18.4066 7.58665 19.5043 9.44969 19.5733C10.6323 19.6174 11.818 19.5817 13.0022 19.5817Z" fill="url(#paint7_linear_21_149)"/>
<path d="M4.8288 9.84655C4.88295 9.46411 4.92421 9.07948 4.99304 8.69981C5.38322 6.54934 6.90567 5.08621 9.08252 5.01122C11.7035 4.92117 14.3324 4.91641 16.953 5.01083C19.3223 5.09612 21.0381 6.85046 21.1121 9.22051C21.1909 11.7372 21.1909 14.26 21.1121 16.7766C21.0381 19.1467 19.3229 20.9008 16.9532 20.9863C14.3326 21.0809 11.7031 21.0833 9.08272 20.9849C6.71306 20.8958 5.07497 19.1375 4.91647 16.7639C4.90279 16.5586 4.85875 16.3551 4.8288 16.1508C4.8288 14.0493 4.8288 11.9478 4.8288 9.84655ZM13.0022 19.5817C14.2015 19.5817 15.402 19.6176 16.5997 19.5733C18.4776 19.5037 19.6327 18.383 19.6766 16.5068C19.7309 14.1691 19.7309 11.8282 19.6766 9.49029C19.6327 7.61456 18.4769 6.46762 16.5997 6.42774C14.2172 6.37736 11.832 6.37776 9.44949 6.42774C7.58665 6.46682 6.42821 7.59056 6.37762 9.44566C6.31335 11.8129 6.31335 14.1844 6.37762 16.5517C6.42821 18.4066 7.58665 19.5043 9.44969 19.5733C10.6323 19.6174 11.818 19.5817 13.0022 19.5817Z" fill="white"/>
<path d="M13 8.83575C10.7002 8.83575 8.83554 10.7002 8.83554 13C8.83554 15.3 10.7002 17.1645 13 17.1645C15.3 17.1645 17.1645 15.3 17.1645 13C17.1645 10.7002 15.3 8.83575 13 8.83575ZM13 15.7307C11.4918 15.7307 10.2693 14.5082 10.2693 13C10.2693 11.4919 11.4918 10.2693 13 10.2693C14.5082 10.2693 15.7307 11.4919 15.7307 13C15.7307 14.5082 14.5082 15.7307 13 15.7307Z" fill="white"/>
<path d="M18.3983 8.64574C18.3983 9.19283 17.9547 9.63637 17.4076 9.63637C16.8605 9.63637 16.4168 9.19283 16.4168 8.64574C16.4168 8.09845 16.8605 7.65491 17.4076 7.65491C17.9547 7.65491 18.3983 8.09845 18.3983 8.64574Z" fill="white"/>
<defs>
<radialGradient id="paint0_radial_21_149" cx="0" cy="0" r="1" gradientUnits="userSpaceOnUse" gradientTransform="translate(5.32985 22.7219) scale(28.6734)">
<stop stop-color="#FAE100"/>
<stop offset="0.0544" stop-color="#FADC04"/>
<stop offset="0.1167" stop-color="#FBCE0E"/>
<stop offset="0.1829" stop-color="#FCB720"/>
<stop offset="0.2514" stop-color="#FE9838"/>
<stop offset="0.3054" stop-color="#FF7950"/>
<stop offset="0.4922" stop-color="#FF1C74"/>
<stop offset="1" stop-color="#6C1CD1"/>
</radialGradient>
<linearGradient id="paint1_linear_21_149" x1="9.97206" y1="11.2968" x2="-34.075" y2="-13.4797" gradientUnits="userSpaceOnUse">
<stop stop-color="#A1B5D8" stop-opacity="0"/>
<stop offset="0.3094" stop-color="#90A2BD" stop-opacity="0.309804"/>
<stop offset="0.7554" stop-color="#7C8B9C" stop-opacity="0.756863"/>
<stop offset="1" stop-color="#748290"/>
</linearGradient>
<linearGradient id="paint2_linear_21_149" x1="13" y1="22.9514" x2="13" y2="27.0042" gradientUnits="userSpaceOnUse">
<stop stop-color="#FAE100" stop-opacity="0"/>
<stop offset="0.3068" stop-color="#FCA800" stop-opacity="0.305882"/>
<stop offset="0.6275" stop-color="#FE7300" stop-opacity="0.627451"/>
<stop offset="0.8685" stop-color="#FF5200" stop-opacity="0.866667"/>
<stop offset="1" stop-color="#FF4500"/>
</linearGradient>
<linearGradient id="paint3_linear_21_149" x1="11.5209" y1="11.484" x2="5.0863" y2="5.04944" gradientUnits="userSpaceOnUse">
<stop stop-color="#833AB4" stop-opacity="0"/>
<stop offset="1" stop-color="#833AB4"/>
</linearGradient>
<linearGradient id="paint4_linear_21_149" x1="17.8191" y1="23.7802" x2="14.6075" y2="8.6398" gradientUnits="userSpaceOnUse">
<stop stop-color="#833AB4" stop-opacity="0"/>
<stop offset="1" stop-color="#833AB4"/>
</linearGradient>
<linearGradient id="paint5_linear_21_149" x1="19.0412" y1="19.0412" x2="6.14154" y2="6.14156" gradientUnits="userSpaceOnUse">
<stop stop-color="#833AB4" stop-opacity="0"/>
<stop offset="1" stop-color="#833AB4"/>
</linearGradient>
<linearGradient id="paint6_linear_21_149" x1="19.998" y1="11.236" x2="15.7323" y2="6.97038" gradientUnits="userSpaceOnUse">
<stop stop-color="#833AB4" stop-opacity="0"/>
<stop offset="1" stop-color="#833AB4"/>
</linearGradient>
<linearGradient id="paint7_linear_21_149" x1="18.1623" y1="7.87356" x2="7.64476" y2="18.3911" gradientUnits="userSpaceOnUse">
<stop stop-color="#833AB4"/>
<stop offset="0.0922" stop-color="#9C3495"/>
<stop offset="0.2927" stop-color="#DC2546"/>
<stop offset="0.392" stop-color="#FD1D1D"/>
<stop offset="0.5589" stop-color="#FC6831"/>
<stop offset="0.6887" stop-color="#FC9B40"/>
<stop offset="0.7521" stop-color="#FCAF45"/>
<stop offset="0.7806" stop-color="#FDB750"/>
<stop offset="0.8656" stop-color="#FECB6A"/>
<stop offset="0.9415" stop-color="#FFD87A"/>
<stop offset="1" stop-color="#FFDC80"/>
</linearGradient>
</defs>
</svg>

<svg width="26" height="26" aria-label="Instagram logo." fill="none" xmlns="http://www.w3.org/2000/svg"><path d="M25.555 4.65A4.734 4.734 0 0 0 21.349.445a78.529 78.529 0 0 0-16.698 0A4.734 4.734 0 0 0 .445 4.65a78.529 78.529 0 0 0 0 16.7 4.734 4.734 0 0 0 4.205 4.205c5.561.593 11.139.593 16.7 0a4.734 4.734 0 0 0 4.205-4.206 78.53 78.53 0 0 0 0-16.699Z" fill="url(#a)"/><path d="M24.14 5.59a4.2 4.2 0 0 0-3.73-3.73 69.712 69.712 0 0 0-14.82 0 4.201 4.201 0 0 0-3.73 3.73 69.71 69.71 0 0 0 0 14.819 4.201 4.201 0 0 0 3.73 3.732c4.935.526 9.885.526 14.819 0a4.2 4.2 0 0 0 3.732-3.732 69.678 69.678 0 0 0 0-14.818Z" fill="url(#b)"/><path d="M.39 20.81c.017.18.036.36.055.54a4.734 4.734 0 0 0 4.206 4.205 78.53 78.53 0 0 0 16.698 0 4.734 4.734 0 0 0 4.206-4.205c.02-.18.038-.36.056-.54H.39Z" fill="url(#c)"/><path d="M25.555 21.35c.319-2.989.466-5.981.442-8.974l-5.943-5.943c-.742-.847-1.827-1.376-3.101-1.422-2.62-.095-5.25-.09-7.87 0-2.177.075-3.7 1.538-4.09 3.689-.069.38-.11.764-.164 1.147v6.304c.03.204.074.408.087.613.088 1.308.625 2.428 1.486 3.186l6.048 6.048c2.968.02 5.936-.127 8.9-.443a4.734 4.734 0 0 0 4.205-4.206Z" fill="url(#d)"/><path d="M25.555 21.35a4.734 4.734 0 0 1-4.206 4.205 78.647 78.647 0 0 1-8.9.443l-6.038-6.039c.7.613 1.613.986 2.672 1.026 2.62.099 5.25.096 7.87.002 2.37-.086 4.085-1.84 4.16-4.21.078-2.517.078-5.04 0-7.556-.035-1.094-.418-2.056-1.055-2.784l5.94 5.94a78.755 78.755 0 0 1-.443 8.972Z" fill="url(#e)"/><path d="M16.068 10.185a4.165 4.165 0 1 0-5.883 5.883l9.635 9.635c.51-.044 1.02-.094 1.53-.148a4.734 4.734 0 0 0 4.205-4.206c.054-.51.104-1.02.148-1.53l-9.635-9.634Z" fill="url(#f)"/><path d="m25.95 15.8-7.755-7.754a.99.99 0 1 0-1.387 1.387l9.003 9.003c.061-.878.107-1.757.139-2.635Z" fill="url(#g)"/><path d="M4.829 9.847c.054-.383.095-.768.164-1.147.39-2.15 1.913-3.614 4.09-3.689 2.62-.09 5.25-.095 7.87 0 2.37.085 4.085 1.84 4.16 4.21.078 2.516.078 5.039 0 7.556-.075 2.37-1.79 4.124-4.16 4.21-2.62.094-5.25.096-7.87-.002-2.37-.09-4.008-1.848-4.167-4.221-.013-.205-.057-.409-.087-.613V9.847Zm8.173 9.735c1.2 0 2.4.036 3.598-.009 1.878-.07 3.033-1.19 3.077-3.066a151.13 151.13 0 0 0 0-7.017c-.044-1.875-1.2-3.022-3.077-3.062-2.383-.05-4.768-.05-7.15 0-1.863.039-3.022 1.163-3.072 3.018a130.971 130.971 0 0 0 0 7.106c.05 1.855 1.209 2.952 3.072 3.021 1.182.044 2.368.009 3.552.009Z" fill="url(#h)"/><path d="M4.829 9.847c.054-.383.095-.768.164-1.147.39-2.15 1.913-3.614 4.09-3.689 2.62-.09 5.25-.095 7.87 0 2.37.085 4.085 1.84 4.16 4.21.078 2.516.078 5.039 0 7.556-.075 2.37-1.79 4.124-4.16 4.21-2.62.094-5.25.096-7.87-.002-2.37-.09-4.008-1.848-4.167-4.221-.013-.205-.057-.409-.087-.613V9.847Zm8.173 9.735c1.2 0 2.4.036 3.598-.009 1.878-.07 3.033-1.19 3.077-3.066a151.13 151.13 0 0 0 0-7.017c-.044-1.875-1.2-3.022-3.077-3.062-2.383-.05-4.768-.05-7.15 0-1.863.039-3.022 1.163-3.072 3.018a130.971 130.971 0 0 0 0 7.106c.05 1.855 1.209 2.952 3.072 3.021 1.182.044 2.368.009 3.552.009Z" fill="#fff"/><path d="M13 8.836a4.164 4.164 0 1 0 0 8.329 4.164 4.164 0 0 0 0-8.33Zm0 6.895a2.73 2.73 0 1 1 0-5.462 2.73 2.73 0 0 1 0 5.462ZM18.398 8.646a.99.99 0 1 1-1.981 0 .99.99 0 0 1 1.981 0Z" fill="#fff"/><defs><linearGradient id="b" x1="9.972" y1="11.297" x2="-34.075" y2="-13.48" gradientUnits="userSpaceOnUse"><stop stop-color="#A1B5D8" stop-opacity="0"/><stop offset=".309" stop-color="#90A2BD" stop-opacity=".31"/><stop offset=".755" stop-color="#7C8B9C" stop-opacity=".757"/><stop offset="1" stop-color="#748290"/></linearGradient><linearGradient id="c" x1="13" y1="22.951" x2="13" y2="27.004" gradientUnits="userSpaceOnUse"><stop stop-color="#FAE100" stop-opacity="0"/><stop offset=".307" stop-color="#FCA800" stop-opacity=".306"/><stop offset=".627" stop-color="#FE7300" stop-opacity=".627"/><stop offset=".869" stop-color="#FF5200" stop-opacity=".867"/><stop offset="1" stop-color="#FF4500"/></linearGradient><linearGradient id="d" x1="11.521" y1="11.484" x2="5.086" y2="5.049" gradientUnits="userSpaceOnUse"><stop stop-color="#833AB4" stop-opacity="0"/><stop offset="1" stop-color="#833AB4"/></linearGradient><linearGradient id="e" x1="17.819" y1="23.78" x2="14.607" y2="8.64" gradientUnits="userSpaceOnUse"><stop stop-color="#833AB4" stop-opacity="0"/><stop offset="1" stop-color="#833AB4"/></linearGradient><linearGradient id="f" x1="19.041" y1="19.041" x2="6.142" y2="6.142" gradientUnits="userSpaceOnUse"><stop stop-color="#833AB4" stop-opacity="0"/><stop offset="1" stop-color="#833AB4"/></linearGradient><linearGradient id="g" x1="19.998" y1="11.236" x2="15.732" y2="6.97" gradientUnits="userSpaceOnUse"><stop stop-color="#833AB4" stop-opacity="0"/><stop offset="1" stop-color="#833AB4"/></linearGradient><linearGradient id="h" x1="18.162" y1="7.874" x2="7.645" y2="18.391" gradientUnits="userSpaceOnUse"><stop stop-color="#833AB4"/><stop offset=".092" stop-color="#9C3495"/><stop offset=".293" stop-color="#DC2546"/><stop offset=".392" stop-color="#FD1D1D"/><stop offset=".559" stop-color="#FC6831"/><stop offset=".689" stop-color="#FC9B40"/><stop offset=".752" stop-color="#FCAF45"/><stop offset=".781" stop-color="#FDB750"/><stop offset=".866" stop-color="#FECB6A"/><stop offset=".942" stop-color="#FFD87A"/><stop offset="1" stop-color="#FFDC80"/></linearGradient><radialGradient id="a" cx="0" cy="0" r="1" gradientUnits="userSpaceOnUse" gradientTransform="translate(5.33 22.722) scale(28.6734)"><stop stop-color="#FAE100"/><stop offset=".054" stop-color="#FADC04"/><stop offset=".117" stop-color="#FBCE0E"/><stop offset=".183" stop-color="#FCB720"/><stop offset=".251" stop-color="#FE9838"/><stop offset=".305" stop-color="#FF7950"/><stop offset=".492" stop-color="#FF1C74"/><stop offset="1" stop-color="#6C1CD1"/></radialGradient></defs></svg>
